X: 33371
T: Queen Of The Rushes, The
R: jig
M: 6/8
K: Dmixolydian
AG|:~F2D DAF|~G2E EAG|~F2D DAF|GED D2E|
~F2D ~F2D|GFG EFG|ABA GEA|1 D~D2 DAG:|2 D~D2 DAB||
|:~c2A Bcd|ec (A {d}A)GE|~d2e fed|e^cA A2B|
~c2A Bcd|ec/B/A AGE|~F3 GEA|1 D~D2 DAB:|2 D~D2 DFG||
|:A~A2 dAF|AFA dAF|~G3 ~E3|cBc EFG|
A~A2 dAF|ABA dAG|~F3 GEA|1 D~D2 DFG:|2 D~D2 DAG||

